!!!SOCIAL_FUNCTION:	corn dance songs
!!!PDT:	1932
!!!OTL: No_17_Corn_Dance_Song_(c).krn
!!!REG: Southwest
!!!LANG: Non-Tone
!!!LING_GROUP: Yuman-Cochimi
**kern	**kern
*staff2	*staff1
=1-	=1-
*clefF4	*clefF4
*k[f#c#g#d#]	*k[f#c#g#d#]
*M2/4	*M2/4
4GG#/	4r
4r	8.r
.	16E\
=2	=2
4GG#/	4.E\
4r	.
.	8E\
=3	=3
4GG#/	8E\L
.	8D#\J
4r	8E\L
.	8E\J
=4	=4
2r	8C#/L
.	8E/J
.	8r
.	8E\
=5	=5
2r	4.E\
.	8E\
=6	=6
2r	8E/L
.	8C#/J
.	8E\L
.	8E\J
=7	=7
2r	8C#/L
.	8E/J
.	8r
.	16r
.	16E\
=8	=8
2r	4.E\
.	8F#\
=9	=9
2r	8E\L
.	8D#\J
.	8E\L
.	8E\J
=10	=10
2r	8C#/L
.	8E/J
.	8.r
.	16E\
=11	=11
2r	4.E\
.	8E\
=12	=12
2r	8E/L
.	8C#/J
.	8E\L
.	8E\J
=13	=13
2r	8C#/L
.	8E/J
.	8r
.	16r
.	16E\
=14	=14
2r	4.E\
.	8F#\
=15	=15
2r	8E/L
.	8C#/J
.	8E\L
.	8E\J
=16	=16
2r	8C#/L
.	8E/J
.	8r
.	8E\
=17	=17
2r	4E\
.	8F#\L
.	8E\J
=18	=18
2r	8E/L
.	8C#/J
.	8E\L
.	8E\J
=19	=19
2r	8C#/L
.	8E/J
.	8r
.	8F#\
=20	=20
2r	4.F#\
.	8G#\
=21	=21
2r	8F#\L
.	8E\J
.	8F#\L
.	8F#\J
=22	=22
2r	8E\L
.	8F#\J
.	8r
.	8E\
=23	=23
2r	4E\
.	8F#\L
.	8E\J
=24	=24
2r	8E/L
.	8C#/J
.	8E\L
.	8E\J
=25	=25
2r	8C#/L
.	8E/J
.	8r
.	8E\
=26	=26
2r	4E\
.	8F#\L
.	8E\J
=27	=27
2r	8E/L
.	8C#/J
.	8E\L
.	8E\J
=28	=28
2r	8C#/L
.	8E/J
.	4r
==	==
*-	*-
